X:1
T: I'm a Young Man
C:
R:Jig
Q:180
K:D
M:6/8
L:1/16
|:f2|A2B2A2 A2B2d2|e2f2g2 f2d2B2|A2B2A2 A2d2f2|e4e2 e4f2|
A2B2A2 A2B2d2|e2f2g2 f2d2B2|A2B2A2 A2f2e2|d4d2 d4e2|
f4f2 f2e2f2|a4f2 f2e2d2|e4e2 e2g2f2|e6e2a2g2|
f2e2d2 d2e2f2|A2B2A2 A2F2A2|A2B2A2 A2f2e2|d6d4:|
